icons/zig.svg

<svg version="1.1" viewBox="0 0 24 24" xmlns="http://www.w3.org/2000/svg"><g transform="matrix(.12759 0 0 .12759 3.1261 5.7261)" style="fill:#d8a657"><g transform="matrix(1.0634 0 0 1.0634 -10.203 -4.0121)" style="fill:#d8a657"><path d="m0 10v80h19l6-10 12-10h-17v-40h15v-20zm40 0v20h62v-20zm91 0-6 10-12 10h17v40h-15v20h35v-80zm-83 60v20h62v-20z" style="fill:#d8a657;shape-rendering:crispEdges"/><path d="m37 70-18 20v-15z" style="fill:#d8a657"/><path d="m113 30 18-20v15z" style="fill:#d8a657"/><path d="m96.98 10.63 36.28-10.4-80.29 89.17-36.28 10.4z" style="fill:#d8a657"/></g></g></svg>

<svg viewBox="0 0 24 24" xmlns="http://www.w3.org/2000/svg"><g style="fill:#f7a41d"><g style="fill:#f9a825"><path d="M0 10v80h19l6-10 12-10H20V30h15V10zm40 0v20h62V10zm91 0-6 10-12 10h17v40h-15v20h35V10zM48 70v20h62V70z" style="fill:#f9a825;shape-rendering:crispEdges" transform="translate(1.824 5.214) scale(.13568)"/><path d="M37 70 19 90V75zm76-40 18-20v15zM96.98 10.63 133.26.23 52.97 89.4 16.69 99.8z" style="fill:#f9a825" transform="translate(1.824 5.214) scale(.13568)"/></g></g></svg>
